src/icons/solid/metrics/sort-abc.svg

<svg width="24" height="24" viewBox="0 0 24 24" fill="none" xmlns="http://www.w3.org/2000/svg">
<g clip-path="url(#clip0_4883_246)">
<path fill-rule="evenodd" clip-rule="evenodd" d="M1.99881 17.5002C1.80125 17.5003 1.60814 17.5589 1.4439 17.6688C1.27965 17.7787 1.15164 17.9349 1.07604 18.1176C1.00045 18.3003 0.980662 18.5013 1.01919 18.6952C1.05772 18.8892 1.15283 19.0674 1.29251 19.2072L4.78905 22.7072C4.97639 22.8947 5.23045 23 5.49535 23C5.76025 23 6.01431 22.8947 6.20165 22.7072L9.73699 19.2072C9.87666 19.0674 9.97178 18.8892 10.0103 18.6952C10.0488 18.5013 10.0291 18.3003 9.95346 18.1176C9.87786 17.9349 9.74985 17.7787 9.5856 17.6688C9.42135 17.5589 9.22825 17.5003 9.03069 17.5002H6.49436L6.49436 2C6.49436 1.73478 6.38911 1.48043 6.20176 1.29289C6.01441 1.10536 5.76031 1 5.49535 1C5.2304 1 4.97629 1.10536 4.78894 1.29289C4.60159 1.48043 4.49634 1.73478 4.49634 2L4.49634 17.5002H1.99881ZM17.737 6.39878C17.7467 6.36972 17.7652 6.34444 17.7901 6.32652C17.8149 6.30861 17.8447 6.29897 17.8753 6.29897C17.9059 6.29897 17.9358 6.30861 17.9606 6.32652C17.9854 6.34444 18.004 6.36972 18.0137 6.39878L19.5142 10.9068H16.2365L17.737 6.39878ZM19.9088 5.76578L21.8409 11.5688C21.8463 11.583 21.8513 11.5973 21.8559 11.6118L22.9488 14.8948C22.9903 15.0194 23.0068 15.151 22.9975 15.282C22.9881 15.413 22.9531 15.5409 22.8944 15.6584C22.8356 15.7758 22.7544 15.8806 22.6552 15.9666C22.5561 16.0526 22.4409 16.1183 22.3164 16.1598C22.1919 16.2013 22.0605 16.2178 21.9296 16.2085C21.7987 16.1991 21.671 16.164 21.5536 16.1053C21.3166 15.9866 21.1364 15.7785 21.0527 15.5268L20.1806 12.9068H15.5691L14.697 15.5268C14.6555 15.6514 14.5899 15.7666 14.504 15.8659C14.4181 15.9651 14.3134 16.0465 14.1961 16.1053C13.9591 16.224 13.6847 16.2436 13.4332 16.1598C13.3087 16.1183 13.1936 16.0526 13.0944 15.9666C12.9953 15.8806 12.914 15.7758 12.8553 15.6584C12.7367 15.4211 12.7171 15.1465 12.8009 14.8948L13.8938 11.6128L13.9088 11.5688L15.8408 5.76578C15.9831 5.33839 16.2561 4.96665 16.6211 4.70322C16.9862 4.43979 17.4248 4.29803 17.8748 4.29803C18.3249 4.29803 18.7635 4.43979 19.1285 4.70322C19.4936 4.96665 19.7666 5.33839 19.9088 5.76578Z" fill="#3C3B44"/>
</g>
<defs>
<clipPath id="clip0_4883_246">
<rect width="24" height="24" fill="white"/>
</clipPath>
</defs>
</svg>

<svg xmlns="http://www.w3.org/2000/svg" width="24" height="24" fill="none" viewBox="0 0 24 24"><g clip-path="url(#a)"><path fill="currentColor" fill-rule="evenodd" d="M1.999 17.5a.999.999 0 0 0-.706 1.707l3.496 3.5a1 1 0 0 0 1.413 0l3.535-3.5a1 1 0 0 0-.706-1.707H6.494V2a1 1 0 0 0-1.705-.707A1 1 0 0 0 4.496 2v15.5zM17.737 6.4a.146.146 0 0 1 .277 0l1.5 4.508h-3.277zm2.172-.633 1.932 5.803.015.043 1.093 3.283a1.001 1.001 0 0 1-1.395 1.21 1 1 0 0 1-.501-.578l-.872-2.62h-4.612l-.872 2.62a1 1 0 0 1-.5.578.999.999 0 0 1-1.396-1.21l1.093-3.282.015-.044 1.932-5.803a2.15 2.15 0 0 1 2.034-1.468 2.14 2.14 0 0 1 2.034 1.468" clip-rule="evenodd"/></g><defs><clipPath id="a"><path fill="currentColor" d="M0 0h24v24H0z"/></clipPath></defs></svg>
